images/icons/calendly.svg

<svg fill="none" height="24" viewBox="0 0 24 24" width="24" xmlns="http://www.w3.org/2000/svg" xmlns:xlink="http://www.w3.org/1999/xlink"><clipPath id="a"><path d="m0 0h24v24h-24z"/></clipPath><g clip-path="url(#a)" fill="#fff"><path d="m16.1463 15.5259c-.9026.959-2.1437 1.5231-3.4412 1.5231h-1.0718c-1.1847 0-2.36941-.4513-3.21561-1.2975-.78979-.8462-1.2411-1.918-1.18469-3.0463v-1.4104c0-1.1846.45131-2.2565 1.2411-3.1027.8462-.8462 1.9745-1.29751 3.1592-1.29751h1.0154c1.2975 0 2.595.56413 3.4976 1.52316.8462.90262 2.0309 1.35393 3.272 1.29751.2821 0 .5641 0 .8462-.05641-.1128-.28207-.2256-.56414-.3949-.78979l-1.2411-2.0873c-1.1282-1.91806-3.1591-3.10274-5.4157-3.10274h-2.4257c-2.25659 0-4.28747 1.18468-5.41574 3.10274l-1.2411 2.0873c-1.12827 1.91804-1.12827 4.34384 0 6.26194l1.2411 2.1437c1.12827 1.918 3.15915 3.1027 5.41574 3.1027h2.4257c2.2566 0 4.2875-1.1847 5.4157-3.1027l1.2411-2.0873c.1693-.2257.2821-.5077.3949-.7898-.2821-.0564-.5641-.0564-.8462-.0564-1.2411-.1693-2.4258.282-3.272 1.1847z"/><path d="m12.6487 8.19209h-1.0718c-1.63602-.05641-3.04636 1.18469-3.15918 2.87711v.2256 1.4104c-.05642 1.636 1.29751 3.0463 2.93348 3.0463h.2257 1.0154c2.7643 0 2.5386-2.8207 6.7132-2.8207.3949 0 .7898.0564 1.1847.1129.1128-.7334.1128-1.4668 0-2.1438-.3949.0565-.7898.1129-1.1847.1129-4.0618 0-3.8361-2.82071-6.6568-2.82071z"/><path d="m22.9724 14.0591c-.7334-.5077-1.5231-.8462-2.4258-1.0155-.0564.3949-.1692.8462-.3384 1.2411.7333.1129 1.4103.3949 1.9744.7898-1.7488 5.6414-7.7286 8.8005-13.42638 7.1081-5.69777-1.6924-8.8005074-7.7286-7.05169-13.42638 1.74882-5.69776 7.72865-8.8005066 13.42637-7.1081 3.3849 1.07186 6.0363 3.72329 7.1081 7.1081-.5641.45131-1.2411.67697-1.9744.78979.1692.3949.282.78979.3385 1.24109.8462-.1128 1.6924-.4513 2.4257-.90261.5078-.28207.677-.90261.4513-1.41034-1.9744-6.31831-8.6876-9.87236-15.00595-7.954301-6.31831 1.974471-9.87236 8.687681-7.954302 15.005951 1.918062 6.3184 8.687682 9.8724 15.005952 7.9543 3.7797-1.1846 6.7697-4.1181 7.9543-7.9543.1693-.5077 0-1.1282-.5077-1.4667z"/></g></svg>

<svg width="24" height="24" viewBox="0 0 24 24" fill="none" xmlns="http://www.w3.org/2000/svg">
<g clip-path="url(#clip0_1450_677)">
<path d="M16.1463 15.5259C15.2437 16.4849 14.0026 17.049 12.7051 17.049H11.6333C10.4486 17.049 9.26389 16.5977 8.41769 15.7515C7.6279 14.9053 7.17659 13.8335 7.233 12.7052V11.2948C7.233 10.1102 7.68431 9.0383 8.4741 8.1921C9.3203 7.3459 10.4486 6.89459 11.6333 6.89459H12.6487C13.9462 6.89459 15.2437 7.45872 16.1463 8.41775C16.9925 9.32037 18.1772 9.77168 19.4183 9.71526C19.7004 9.71526 19.9824 9.71526 20.2645 9.65885C20.1517 9.37678 20.0389 9.09471 19.8696 8.86906L18.6285 6.78176C17.5003 4.8637 15.4694 3.67902 13.2128 3.67902H10.7871C8.53051 3.67902 6.49963 4.8637 5.37136 6.78176L4.13026 8.86906C3.00199 10.7871 3.00199 13.2129 4.13026 15.131L5.37136 17.2747C6.49963 19.1927 8.53051 20.3774 10.7871 20.3774H13.2128C15.4694 20.3774 17.5003 19.1927 18.6285 17.2747L19.8696 15.1874C20.0389 14.9617 20.1517 14.6797 20.2645 14.3976C19.9824 14.3412 19.7004 14.3412 19.4183 14.3412C18.1772 14.1719 16.9925 14.6232 16.1463 15.5259Z" fill="white"/>
<path d="M12.6487 8.19209H11.5769C9.94088 8.13568 8.53054 9.37678 8.41772 11.0692C8.41772 11.1256 8.41772 11.2384 8.41772 11.2948V12.7052C8.3613 14.3412 9.71523 15.7515 11.3512 15.7515C11.4076 15.7515 11.464 15.7515 11.5769 15.7515H12.5923C15.3566 15.7515 15.1309 12.9308 19.3055 12.9308C19.7004 12.9308 20.0953 12.9872 20.4902 13.0437C20.603 12.3103 20.603 11.5769 20.4902 10.8999C20.0953 10.9564 19.7004 11.0128 19.3055 11.0128C15.2437 11.0128 15.4694 8.19209 12.6487 8.19209Z" fill="white"/>
<path d="M22.9724 14.0591C22.239 13.5514 21.4493 13.2129 20.5466 13.0436C20.4902 13.4385 20.3774 13.8898 20.2082 14.2847C20.9415 14.3976 21.6185 14.6796 22.1826 15.0745C20.4338 20.7159 14.454 23.875 8.75622 22.1826C3.05845 20.4902 -0.0442874 14.454 1.70453 8.75622C3.45335 3.05846 9.43318 -0.0442866 15.1309 1.64812C18.5158 2.71998 21.1672 5.37141 22.239 8.75622C21.6749 9.20753 20.9979 9.43319 20.2646 9.54601C20.4338 9.94091 20.5466 10.3358 20.6031 10.7871C21.4493 10.6743 22.2955 10.3358 23.0288 9.88449C23.5366 9.60242 23.7058 8.98188 23.4801 8.47415C21.5057 2.15584 14.7925 -1.39821 8.47415 0.519849C2.15584 2.49432 -1.39821 9.20753 0.519848 15.5258C2.43791 21.8442 9.20753 25.3982 15.5258 23.4801C19.3055 22.2955 22.2955 19.362 23.4801 15.5258C23.6494 15.0181 23.4801 14.3976 22.9724 14.0591Z" fill="white"/>
</g>
<defs>
<clipPath id="clip0_1450_677">
<rect width="24" height="24" fill="white"/>
</clipPath>
</defs>
</svg>
